z-union/img/icons/tab-icons/tab-icon-2.svg

<svg width="52" height="60" viewBox="0 0 52 60" fill="none" xmlns="http://www.w3.org/2000/svg">
<path d="M26.7143 3.22656H24.6367V55.4827H26.7143V3.22656Z" fill="#232321"/>
<path d="M25.2095 2.31807L3.80054 13.1689L4.73982 15.0222L26.1487 4.17128L25.2095 2.31807Z" fill="#232321"/>
<path d="M4.73238 44.1521L3.82593 46.0215L25.2262 56.3982L26.1327 54.5288L4.73238 44.1521Z" fill="#232321"/>
<path d="M27.1143 2.3013L26.1746 4.1543L47.5811 15.01L48.5208 13.157L27.1143 2.3013Z" fill="#232321"/>
<path d="M47.5586 44.1492L26.1606 54.5283L27.0673 56.3975L48.4652 46.0185L47.5586 44.1492Z" fill="#232321"/>
<path d="M25.6854 58.7092C27.4666 58.7092 28.9106 57.2652 28.9106 55.484C28.9106 53.7027 27.4666 52.2588 25.6854 52.2588C23.9042 52.2588 22.4602 53.7027 22.4602 55.484C22.4602 57.2652 23.9042 58.7092 25.6854 58.7092Z" fill="#151514"/>
<path d="M25.6854 59.7575C25.6261 59.7575 25.5865 59.7575 25.5271 59.7575C24.3795 59.7179 23.3308 59.243 22.5591 58.3922C21.7875 57.5611 21.372 56.4729 21.4115 55.3253C21.4511 54.1776 21.926 53.129 22.7768 52.3573C23.6078 51.5856 24.6961 51.1899 25.8437 51.2097C26.9913 51.2493 28.04 51.7241 28.8117 52.5749C29.5834 53.406 29.9989 54.4942 29.9593 55.6419C29.8604 57.9371 27.9609 59.7575 25.6854 59.7575ZM25.6854 53.3071C25.1314 53.3071 24.6169 53.5049 24.2014 53.9007C23.7661 54.2964 23.5287 54.8306 23.5089 55.4242C23.4891 55.998 23.687 56.5718 24.0827 56.9874C24.4784 57.4227 25.0127 57.6601 25.6063 57.6799C26.833 57.7194 27.8224 56.7895 27.8619 55.5825C27.8817 55.0087 27.6839 54.4349 27.2881 54.0194C26.8924 53.5841 26.3582 53.3466 25.7646 53.3268C25.7448 53.307 25.7052 53.3071 25.6854 53.3071Z" fill="#232321"/>
<path d="M25.6854 7.50117C27.4666 7.50117 28.9106 6.05722 28.9106 4.27599C28.9106 2.49476 27.4666 1.05078 25.6854 1.05078C23.9042 1.05078 22.4602 2.49476 22.4602 4.27599C22.4602 6.05722 23.9042 7.50117 25.6854 7.50117Z" fill="#151514"/>
<path d="M25.6854 8.55035C25.6261 8.55035 25.5865 8.55035 25.5271 8.55035C24.3795 8.51077 23.3308 8.03592 22.5591 7.1851C21.7875 6.35407 21.372 5.26581 21.4115 4.11819C21.4511 2.97057 21.926 1.92188 22.7768 1.15021C23.6078 0.378536 24.6961 -0.036984 25.8437 0.00258902C26.9913 0.042162 28.04 0.517043 28.8117 1.36786C29.5834 2.1989 29.9989 3.28716 29.9593 4.43478C29.9197 5.5824 29.4449 6.63108 28.594 7.40276C27.8026 8.13486 26.7737 8.55035 25.6854 8.55035ZM25.6854 2.09995C25.1314 2.09995 24.6169 2.29783 24.2014 2.69356C23.7661 3.08929 23.5287 3.62353 23.5089 4.21713C23.4891 4.79094 23.687 5.36473 24.0827 5.78025C24.4784 6.21555 25.0127 6.453 25.6063 6.47279C26.1999 6.49257 26.7539 6.29469 27.1694 5.89896C27.6047 5.50323 27.8421 4.96899 27.8619 4.37539C27.8817 3.80158 27.6839 3.22779 27.2881 2.81227C26.8924 2.37697 26.3582 2.13952 25.7646 2.11973C25.7448 2.09994 25.7052 2.09995 25.6854 2.09995Z" fill="#232321"/>
<path d="M47.0748 28.3174H4.27661V30.395H47.0748V28.3174Z" fill="#232321"/>
<path d="M45.0085 42.3364L7.58301 15.0713L6.35966 16.7505L43.7852 44.0157L45.0085 42.3364Z" fill="#7BBFE2"/>
<path d="M48.1035 14.0898H46.0259V44.6402H48.1035V14.0898Z" fill="#7BBFE2"/>
<path d="M5.30537 14.0898H3.22778V44.6402H5.30537V14.0898Z" fill="#7BBFE2"/>
<path d="M4.27647 17.3156C6.0577 17.3156 7.50167 15.8716 7.50167 14.0904C7.50167 12.3092 6.0577 10.8652 4.27647 10.8652C2.49524 10.8652 1.05127 12.3092 1.05127 14.0904C1.05127 15.8716 2.49524 17.3156 4.27647 17.3156Z" fill="#151514"/>
<path d="M4.27648 18.3639C4.21712 18.3639 4.17754 18.3639 4.11818 18.3639C2.97057 18.3244 1.92188 17.8495 1.15021 16.9987C0.378533 16.1478 -0.036984 15.0794 0.00258904 13.9317C0.0421621 12.7841 0.517038 11.7354 1.36786 10.9638C2.19889 10.1921 3.28715 9.79635 4.43477 9.81614C6.78936 9.89528 8.62951 11.8937 8.55036 14.2286C8.51079 15.3762 8.03591 16.4249 7.18509 17.1965C6.37385 17.9484 5.34495 18.3639 4.27648 18.3639ZM4.25669 11.9135C3.70267 11.9135 3.18822 12.1114 2.7727 12.5071C2.3374 12.9028 2.09996 13.4371 2.08017 14.0307C2.06039 14.6045 2.25825 15.1783 2.65398 15.5938C3.04971 16.0291 3.58395 16.2665 4.17754 16.2863C4.75135 16.3061 5.32516 16.1083 5.74068 15.7125C6.17598 15.3168 6.41342 14.7826 6.43321 14.189C6.47278 12.982 5.54281 11.9729 4.33584 11.9333C4.31605 11.9135 4.29626 11.9135 4.25669 11.9135Z" fill="#7BBFE2"/>
<path d="M4.27647 47.8655C6.0577 47.8655 7.50167 46.4215 7.50167 44.6403C7.50167 42.859 6.0577 41.415 4.27647 41.415C2.49524 41.415 1.05127 42.859 1.05127 44.6403C1.05127 46.4215 2.49524 47.8655 4.27647 47.8655Z" fill="#151514"/>
<path d="M4.27648 48.8949C4.21712 48.8949 4.17754 48.8949 4.11818 48.8949C2.97057 48.8553 1.92188 48.3804 1.15021 47.5296C0.378533 46.6986 -0.036984 45.6103 0.00258904 44.4627C0.0817351 42.1081 2.08017 40.2878 4.41498 40.3471C6.76958 40.4263 8.60972 42.4247 8.53058 44.7595C8.45143 47.0943 6.55193 48.8949 4.27648 48.8949ZM4.27648 42.4445C3.10907 42.4445 2.13953 43.3744 2.09996 44.5418C2.08017 45.1157 2.27804 45.6895 2.67377 46.105C3.0695 46.5403 3.60373 46.7777 4.19733 46.7975C4.79093 46.8173 5.34495 46.6194 5.76047 46.2237C6.19577 45.828 6.43321 45.2937 6.45299 44.7001C6.49257 43.4932 5.5626 42.4841 4.35562 42.4445C4.31605 42.4445 4.29626 42.4445 4.27648 42.4445Z" fill="#7BBFE2"/>
<path d="M47.0748 17.3166C48.856 17.3166 50.3 15.8726 50.3 14.0914C50.3 12.3102 48.856 10.8662 47.0748 10.8662C45.2936 10.8662 43.8496 12.3102 43.8496 14.0914C43.8496 15.8726 45.2936 17.3166 47.0748 17.3166Z" fill="#151514"/>
<path d="M47.0748 18.3658C47.0155 18.3658 46.9759 18.3658 46.9165 18.3658C45.7689 18.3262 44.7202 17.8514 43.9485 17.0005C43.1769 16.1695 42.7614 15.0812 42.8009 13.9336C42.8405 12.786 43.3154 11.7373 44.1662 10.9656C44.9972 10.194 46.0855 9.77845 47.2331 9.81802C48.3807 9.85759 49.4294 10.3325 50.2011 11.1833C50.9728 12.0143 51.3883 13.1026 51.3487 14.2502C51.3091 15.3978 50.8343 16.4465 49.9834 17.2182C49.192 17.9503 48.1631 18.3658 47.0748 18.3658ZM47.0748 11.9154C46.5208 11.9154 46.0063 12.1133 45.5908 12.509C45.1555 12.9047 44.9181 13.439 44.8983 14.0326C44.8785 14.6064 45.0764 15.1802 45.4721 15.5957C45.8678 16.031 46.4021 16.2684 46.9957 16.2882C47.5497 16.308 48.1433 16.1102 48.5588 15.7144C48.9941 15.3187 49.2315 14.7844 49.2513 14.1909C49.2711 13.617 49.0733 13.0432 48.6775 12.6277C48.2818 12.1924 47.7476 11.955 47.154 11.9352C47.1342 11.9154 47.0946 11.9154 47.0748 11.9154Z" fill="#7BBFE2"/>
<path d="M47.0748 32.5901C48.856 32.5901 50.3 31.1461 50.3 29.3649C50.3 27.5836 48.856 26.1396 47.0748 26.1396C45.2936 26.1396 43.8496 27.5836 43.8496 29.3649C43.8496 31.1461 45.2936 32.5901 47.0748 32.5901Z" fill="#151514"/>
<path d="M47.0748 33.6197C47.0155 33.6197 46.9759 33.6197 46.9165 33.6197C45.7689 33.5801 44.7202 33.1053 43.9485 32.2544C43.1769 31.4234 42.7614 30.3351 42.8009 29.1875C42.8405 28.0399 43.3154 26.9912 44.1662 26.2195C44.9972 25.4479 46.0855 25.0324 47.2331 25.0719C48.3807 25.1115 49.4294 25.5864 50.2011 26.4372C50.9728 27.2682 51.3883 28.3565 51.3487 29.5041C51.2498 31.8191 49.3503 33.6197 47.0748 33.6197ZM47.0748 27.1891C46.5208 27.1891 46.0063 27.3869 45.5908 27.7827C45.1555 28.1784 44.9181 28.7126 44.8983 29.3062C44.8785 29.88 45.0764 30.4538 45.4721 30.8694C45.8678 31.3047 46.4021 31.5421 46.9957 31.5619C48.2224 31.6213 49.2118 30.6715 49.2513 29.4645C49.2711 28.8907 49.0733 28.3169 48.6775 27.9014C48.2818 27.4661 47.7476 27.2287 47.154 27.2089C47.1342 27.1891 47.0946 27.1891 47.0748 27.1891Z" fill="#7BBFE2"/>
<path d="M25.6854 32.5901C27.4666 32.5901 28.9106 31.1461 28.9106 29.3649C28.9106 27.5836 27.4666 26.1396 25.6854 26.1396C23.9042 26.1396 22.4602 27.5836 22.4602 29.3649C22.4602 31.1461 23.9042 32.5901 25.6854 32.5901Z" fill="#151514"/>
<path d="M25.6854 33.6197C25.6261 33.6197 25.5865 33.6197 25.5271 33.6197C24.3795 33.5801 23.3308 33.1053 22.5591 32.2544C21.7875 31.4234 21.372 30.3351 21.4115 29.1875C21.4511 28.0399 21.926 26.9912 22.7768 26.2195C23.6078 25.4479 24.6961 25.0324 25.8437 25.0719C26.9913 25.1115 28.04 25.5864 28.8117 26.4372C29.5834 27.2682 29.9989 28.3565 29.9593 29.5041C29.8604 31.8191 27.9609 33.6197 25.6854 33.6197ZM25.6854 27.1891C25.1314 27.1891 24.6169 27.3869 24.2014 27.7827C23.7661 28.1784 23.5287 28.7126 23.5089 29.3062C23.4891 29.88 23.687 30.4538 24.0827 30.8694C24.4784 31.3047 25.0127 31.5421 25.6063 31.5619C26.833 31.6213 27.8224 30.6715 27.8619 29.4645C27.8817 28.8907 27.6839 28.3169 27.2881 27.9014C26.8924 27.4661 26.3582 27.2287 25.7646 27.2089C25.7448 27.1891 25.7052 27.1891 25.6854 27.1891Z" fill="#7BBFE2"/>
<path d="M4.27647 32.5901C6.0577 32.5901 7.50167 31.1461 7.50167 29.3649C7.50167 27.5836 6.0577 26.1396 4.27647 26.1396C2.49524 26.1396 1.05127 27.5836 1.05127 29.3649C1.05127 31.1461 2.49524 32.5901 4.27647 32.5901Z" fill="#151514"/>
<path d="M4.27648 33.6198C4.21712 33.6198 4.17754 33.6198 4.11818 33.6198C2.97057 33.5802 1.92188 33.1053 1.15021 32.2545C0.378533 31.4235 -0.036984 30.3352 0.00258904 29.1876C0.0421621 28.04 0.517038 26.9913 1.36786 26.2196C2.19889 25.4479 3.28715 25.0522 4.43477 25.072C6.78936 25.1511 8.62951 27.1298 8.55036 29.4844C8.45143 31.8192 6.55193 33.6198 4.27648 33.6198ZM4.25669 27.1892C3.70267 27.1892 3.18822 27.387 2.7727 27.7827C2.3374 28.1785 2.09996 28.7127 2.08017 29.3063C2.06039 29.8801 2.25825 30.4539 2.65398 30.8694C3.04971 31.3047 3.58395 31.5422 4.17754 31.562C5.38452 31.6213 6.39363 30.6716 6.43321 29.4646C6.47278 28.2576 5.54281 27.2485 4.33584 27.2089C4.31605 27.1892 4.29626 27.1892 4.25669 27.1892Z" fill="#7BBFE2"/>
<path d="M47.0748 47.8655C48.856 47.8655 50.3 46.4215 50.3 44.6403C50.3 42.859 48.856 41.415 47.0748 41.415C45.2936 41.415 43.8496 42.859 43.8496 44.6403C43.8496 46.4215 45.2936 47.8655 47.0748 47.8655Z" fill="#151514"/>
<path d="M47.0748 48.8949C47.0155 48.8949 46.9759 48.8949 46.9165 48.8949C45.7689 48.8553 44.7202 48.3804 43.9485 47.5296C43.1769 46.6986 42.7614 45.6103 42.8009 44.4627C42.8801 42.1081 44.8785 40.2878 47.2133 40.3471C48.3609 40.3867 49.4096 40.8616 50.1813 41.7124C50.953 42.5434 51.3685 43.6317 51.3289 44.7793C51.2498 47.0943 49.3503 48.8949 47.0748 48.8949ZM47.0748 42.4445C45.9074 42.4445 44.9379 43.3744 44.8983 44.5418C44.8785 45.1157 45.0764 45.6895 45.4721 46.105C45.8678 46.5403 46.4021 46.7777 46.9957 46.7975C47.5893 46.8173 48.1433 46.6194 48.5588 46.2237C48.9941 45.828 49.2315 45.2937 49.2513 44.7001C49.2711 44.1263 49.0733 43.5525 48.6775 43.137C48.2818 42.7017 47.7476 42.4643 47.154 42.4445C47.1342 42.4445 47.0946 42.4445 47.0748 42.4445Z" fill="#7BBFE2"/>
</svg>

<svg width="52" height="60" fill="none" xmlns="http://www.w3.org/2000/svg"><path d="M26.714 3.227h-2.077v52.256h2.077V3.227z" fill="#232321"/><path d="M25.21 2.318L3.8 13.168l.94 1.854 21.409-10.85-.94-1.854zM4.732 44.152l-.906 1.87 21.4 10.376.907-1.87-21.4-10.376zM27.114 2.301l-.94 1.853L47.582 15.01l.94-1.853L27.114 2.301zM47.559 44.15L26.16 54.527l.906 1.87 21.398-10.38-.906-1.869z" fill="#232321"/><path d="M25.685 58.71a3.225 3.225 0 100-6.451 3.225 3.225 0 000 6.45z" fill="#151514"/><path d="M25.685 59.758h-.158a4.147 4.147 0 01-2.968-1.366 4.269 4.269 0 01-1.148-3.067 4.147 4.147 0 011.366-2.968c.83-.771 1.92-1.167 3.067-1.147a4.147 4.147 0 012.968 1.365 4.268 4.268 0 011.147 3.067c-.099 2.295-1.998 4.115-4.274 4.115zm0-6.45a2.11 2.11 0 00-1.484.593c-.435.395-.672.93-.692 1.523-.02.574.178 1.148.574 1.563.395.436.93.673 1.523.693a2.16 2.16 0 002.256-2.097 2.162 2.162 0 00-.574-1.564 2.115 2.115 0 00-1.523-.692c-.02-.02-.06-.02-.08-.02z" fill="#232321"/><path d="M25.685 7.501a3.225 3.225 0 100-6.45 3.225 3.225 0 000 6.45z" fill="#151514"/><path d="M25.685 8.55h-.158a4.147 4.147 0 01-2.968-1.365 4.269 4.269 0 01-1.148-3.067 4.147 4.147 0 011.366-2.968A4.268 4.268 0 0125.844.003a4.147 4.147 0 012.968 1.365 4.268 4.268 0 011.147 3.067 4.146 4.146 0 01-1.365 2.968 4.274 4.274 0 01-2.909 1.147zm0-6.45c-.554 0-1.068.198-1.484.594-.435.395-.672.93-.692 1.523-.02.574.178 1.148.574 1.563.395.436.93.673 1.523.693a2.132 2.132 0 001.563-.574c.436-.396.673-.93.693-1.524a2.162 2.162 0 00-.574-1.563 2.115 2.115 0 00-1.523-.692c-.02-.02-.06-.02-.08-.02zm21.39 26.217H4.277v2.078h42.798v-2.078z" fill="#232321"/><path d="M45.008 42.336L7.584 15.071l-1.223 1.68 37.425 27.265 1.224-1.68zm3.095-28.246h-2.077v30.55h2.077V14.09zm-42.798 0H3.228v30.55h2.077V14.09z" fill="#7BBFE2"/><path d="M4.276 17.316a3.225 3.225 0 100-6.45 3.225 3.225 0 000 6.45z" fill="#151514"/><path d="M4.276 18.364h-.158a4.146 4.146 0 01-2.968-1.365c-.771-.851-1.187-1.92-1.147-3.067a4.146 4.146 0 011.365-2.968c.83-.772 1.92-1.168 3.067-1.148 2.354.08 4.195 2.078 4.115 4.413a4.146 4.146 0 01-1.365 2.968c-.811.751-1.84 1.167-2.909 1.167zm-.02-6.45c-.553 0-1.068.197-1.483.593-.436.396-.673.93-.693 1.524-.02.573.178 1.147.574 1.563.396.435.93.673 1.524.692a2.162 2.162 0 001.563-.574c.435-.395.672-.93.692-1.523a2.172 2.172 0 00-2.097-2.256c-.02-.02-.04-.02-.08-.02z" fill="#7BBFE2"/><path d="M4.276 47.865a3.225 3.225 0 100-6.45 3.225 3.225 0 000 6.45z" fill="#151514"/><path d="M4.276 48.895h-.158A4.147 4.147 0 011.15 47.53a4.268 4.268 0 01-1.147-3.067c.079-2.355 2.077-4.175 4.412-4.116 2.355.08 4.195 2.078 4.116 4.413a4.262 4.262 0 01-4.255 4.135zm0-6.45A2.18 2.18 0 002.1 44.541c-.02.574.178 1.148.574 1.563.396.435.93.673 1.523.693a2.132 2.132 0 001.563-.574c.436-.396.673-.93.693-1.524a2.172 2.172 0 00-2.097-2.256h-.08z" fill="#7BBFE2"/><path d="M47.075 17.317a3.225 3.225 0 100-6.45 3.225 3.225 0 000 6.45z" fill="#151514"/><path d="M47.075 18.366h-.159A4.147 4.147 0 0143.95 17a4.269 4.269 0 01-1.148-3.066 4.147 4.147 0 011.365-2.968 4.268 4.268 0 013.067-1.148 4.147 4.147 0 012.968 1.365 4.268 4.268 0 011.148 3.067 4.147 4.147 0 01-1.366 2.968 4.274 4.274 0 01-2.908 1.148zm0-6.45c-.554 0-1.069.197-1.484.593-.435.396-.673.93-.693 1.524-.02.573.178 1.147.574 1.563.396.435.93.672 1.524.692.554.02 1.147-.178 1.563-.574.435-.395.672-.93.692-1.523a2.162 2.162 0 00-.573-1.563 2.115 2.115 0 00-1.524-.693c-.02-.02-.06-.02-.08-.02z" fill="#7BBFE2"/><path d="M47.075 32.59a3.225 3.225 0 100-6.45 3.225 3.225 0 000 6.45z" fill="#151514"/><path d="M47.075 33.62h-.159a4.147 4.147 0 01-2.967-1.366 4.269 4.269 0 01-1.148-3.066 4.147 4.147 0 011.365-2.968 4.269 4.269 0 013.067-1.148 4.147 4.147 0 012.968 1.365 4.268 4.268 0 011.148 3.067 4.289 4.289 0 01-4.274 4.116zm0-6.43c-.554 0-1.069.197-1.484.593-.435.395-.673.93-.693 1.523-.02.574.178 1.148.574 1.563.396.436.93.673 1.524.693 1.226.06 2.216-.89 2.255-2.098a2.162 2.162 0 00-.573-1.563 2.115 2.115 0 00-1.524-.692c-.02-.02-.06-.02-.08-.02z" fill="#7BBFE2"/><path d="M25.685 32.59a3.225 3.225 0 100-6.45 3.225 3.225 0 000 6.45z" fill="#151514"/><path d="M25.685 33.62h-.158a4.147 4.147 0 01-2.968-1.366 4.269 4.269 0 01-1.148-3.066 4.147 4.147 0 011.366-2.968 4.269 4.269 0 013.067-1.148 4.147 4.147 0 012.968 1.365 4.268 4.268 0 011.147 3.067 4.289 4.289 0 01-4.274 4.116zm0-6.43a2.11 2.11 0 00-1.484.593c-.435.395-.672.93-.692 1.523-.02.574.178 1.148.574 1.563.395.436.93.673 1.523.693 1.227.06 2.216-.89 2.256-2.098a2.162 2.162 0 00-.574-1.563 2.115 2.115 0 00-1.523-.692c-.02-.02-.06-.02-.08-.02z" fill="#7BBFE2"/><path d="M4.276 32.59a3.225 3.225 0 100-6.45 3.225 3.225 0 000 6.45z" fill="#151514"/><path d="M4.276 33.62h-.158a4.147 4.147 0 01-2.968-1.365 4.268 4.268 0 01-1.147-3.067 4.147 4.147 0 011.365-2.968c.83-.772 1.92-1.168 3.067-1.148a4.267 4.267 0 014.115 4.412c-.099 2.335-1.998 4.136-4.274 4.136zm-.02-6.43c-.553 0-1.068.197-1.483.593-.436.395-.673.93-.693 1.523-.02.574.178 1.148.574 1.563.396.436.93.673 1.524.693a2.16 2.16 0 002.255-2.097 2.172 2.172 0 00-2.097-2.256c-.02-.02-.04-.02-.08-.02z" fill="#7BBFE2"/><path d="M47.075 47.865a3.225 3.225 0 100-6.45 3.225 3.225 0 000 6.45z" fill="#151514"/><path d="M47.075 48.895h-.159a4.147 4.147 0 01-2.967-1.365 4.269 4.269 0 01-1.148-3.067c.08-2.355 2.078-4.175 4.412-4.116a4.147 4.147 0 012.968 1.365 4.268 4.268 0 011.148 3.067 4.258 4.258 0 01-4.254 4.116zm0-6.45a2.18 2.18 0 00-2.177 2.097c-.02.574.178 1.148.574 1.563.396.435.93.673 1.524.693a2.132 2.132 0 001.563-.574c.435-.396.672-.93.692-1.524a2.162 2.162 0 00-.573-1.563 2.115 2.115 0 00-1.524-.693h-.08z" fill="#7BBFE2"/></svg>
